X: 19332
T: Jack Lintel's
R: three-two
M: 3/2
K: Aminor
M:3/4
|:cA AE c2|cA Ac B/c/d/B/|cA AE c2|BG Gc B/c/d/B/:|
|:c2 df e2|eA Ac B/c/d/B/|c2 df eg|BG Gc B/c/d/B/:|
|:eg ce gc|eg cg BG|eg ce gc|BG Gc B/c/d/B/:|

